F[BALLADE
CUT[Graf und Nonne (Die Nonne)
    Mein Schatz hat ein weiss' Hemet an,]
CNR[ist weisser als der Schnee,]
REG[Osteuropa, Ungarn, Deutsch - Pilsen, Honter Gespannschaft]
SRC[8, S. 75
    1930 aufgezeichnet]
KEY[Q0155W 08  G 4/4]
MEL[-5_  1_-7_1_2_  3b_3b_2_
    2_  5_5_4_3b_  2__0_
    3b4  3b_-7b_3b_4_  5__4_
    3b_  2_1_3b_2_  1__0_
    3b4  3b_-7b_3b_4_  5__4_
    3b_  2_1_3b_2_  1__0_ //] >>
FCT[Ballade, Standesunterschied, vergebliche Werbung, Liebe, Klage]
